X: 30325
T: Old Micky McKiernan's
R: reel
M: 4/4
K: Dmajor
D2 (3FED FAAB|de fd BAFA|~B3 A FAdB|AFDF EDBA|
D2 (3FED FAAB|de fd BAFA|~B3 A FAdB|AFDF EDBA|
D2 (3FED FAAB|de fd BAFA|~B3 A FAdB|AFDF E~B3|
D2 (3FED FAAB|de fd BAFA|~B3 A FAdB|AFDF ED BA|
|:defg afdf|afdf e~B3|defg afdf|abaf ee cA|
defg afdf|afdf eBBA|~B3A FAdB|AFDF ED BA:|

